X:166
T: ICH STAND AUF HOHEN BERGEN
N: E0089E
O: Europa, Mitteleuropa, Deutschland, Kreis Wetzlar; Neuwied
R: erzaehlendes Volks - Lied, Sage, Liebe, Leid
M: 3/4
L: 1/8
K: F
C2 | F2c2AF | G2B2
cB | A2A2cA | G2z2
GA | Bdd2cB | Acc2
A2 | G2c2Bc | A2z2

